icons/svg/weather-night.svg

﻿<?xml version="1.0" encoding="utf-8"?>
<!DOCTYPE svg PUBLIC "-//W3C//DTD SVG 1.1//EN" "http://www.w3.org/Graphics/SVG/1.1/DTD/svg11.dtd">
<svg xmlns="http://www.w3.org/2000/svg" xmlns:xlink="http://www.w3.org/1999/xlink" version="1.1" baseProfile="full" width="24" height="24" viewBox="0 0 24.00 24.00" enable-background="new 0 0 24.00 24.00" xml:space="preserve">
	<path fill="#000000" fill-opacity="1" stroke-width="0.2" stroke-linejoin="round" d="M 17.7533,4.09017L 15.2205,6.03115L 16.1287,9.09017L 13.5,7.28115L 10.8713,9.09017L 11.7795,6.03115L 9.24675,4.09017L 12.4367,4.00861L 13.5,1L 14.5633,4.00861L 17.7533,4.09017 Z M 21.25,10.998L 19.6124,12.253L 20.1996,14.2308L 18.5,13.0612L 16.8004,14.2308L 17.3876,12.253L 15.75,10.998L 17.8125,10.9453L 18.5,9L 19.1875,10.9453L 21.25,10.998 Z M 18.9708,15.9451C 19.8009,15.8661 20.6935,17.0479 20.1576,17.7991C 19.8393,18.2453 19.48,18.6713 19.0795,19.0717C 15.1743,22.9769 8.84266,22.9769 4.93741,19.0717C 1.03217,15.1664 1.03217,8.83477 4.93741,4.92953C 5.33782,4.52912 5.76373,4.16977 6.20993,3.85147C 6.96118,3.31555 8.14293,4.20819 8.06402,5.0383C 7.79155,7.9047 8.75282,10.8662 10.9478,13.0613C 13.1428,15.2563 16.1044,16.2175 18.9708,15.9451 Z M 17.334,17.9707C 14.495,17.8094 11.7025,16.6443 9.53361,14.4755C 7.36473,12.3066 6.19963,9.51403 6.03833,6.6751C 3.23118,9.81639 3.33561,14.6414 6.35163,17.6574C 9.36764,20.6735 14.1927,20.7779 17.334,17.9707 Z "/>
</svg>

<svg xmlns="http://www.w3.org/2000/svg" version="1.1" baseProfile="full" width="24" height="24" viewBox="0 0 24.00 24.00" xml:space="preserve"><path fill="#000" fill-opacity="1" stroke-width=".2" stroke-linejoin="round" d="M17.753 4.09L15.22 6.03l.91 3.06-2.63-1.81-2.63 1.81.91-3.06-2.533-1.94 3.19-.08L13.5 1l1.063 3.01 3.19.08zm3.497 6.908l-1.638 1.255.588 1.978-1.7-1.17-1.7 1.17.588-1.977-1.638-1.255 2.063-.053L18.5 9l.688 1.945 2.062.053zm-2.28 4.947c.83-.08 1.724 1.103 1.188 1.854-.32.445-.678.87-1.08 1.272-3.904 3.905-10.235 3.905-14.14 0-3.906-3.906-3.906-10.237 0-14.142.4-.4.826-.76 1.272-1.08.75-.534 1.933.358 1.854 1.188-.272 2.867.69 5.828 2.884 8.023 2.195 2.196 5.156 3.158 8.023 2.885zm-1.636 2.026c-2.84-.16-5.63-1.326-7.8-3.494-2.17-2.17-3.334-4.962-3.496-7.8-2.807 3.14-2.702 7.965.314 10.98 3.016 3.018 7.84 3.122 10.982.315z"/></svg>
